icon/lg/drools.svg

<?xml version="1.0" encoding="UTF-8"?>
<svg viewBox="0 0 512 153" version="1.1" xmlns="http://www.w3.org/2000/svg" preserveAspectRatio="xMidYMid" height="1em" width="1em">
  <g>
    <g>
      <path d="M25.1282142,117.645763 C24.8769251,117.645763 24.62217,117.613702 24.3674148,117.546114 C22.8050897,117.127588 21.877053,115.519337 22.2955794,113.956146 C27.1376606,95.8797935 26.2122235,47.5179043 26.2009588,47.0309234 C26.1671647,45.4148744 27.4539383,44.0752435 29.0708537,44.044049 C29.0916501,44.042316 29.1115799,44.042316 29.1306432,44.042316 C30.7215632,44.042316 32.0265336,45.3143588 32.0594611,46.9130775 C32.1001873,48.9320555 33.0108937,96.6015998 27.95565,115.474279 C27.6055783,116.781848 26.4210534,117.645763 25.1282142,117.645763 Z" fill="#0095DD"/>
      <path d="M67.3603821,81.2131746 C61.4672192,81.2131746 56.5046925,78.7852019 56.1840823,78.6240302 C54.7370036,77.9013574 54.1503735,76.1414671 54.8739128,74.6943884 C55.5957192,73.2507758 57.3495438,72.6615462 58.8000886,73.3807529 C58.9751244,73.4674044 68.024132,77.8077739 74.1053285,73.3148979 C75.4059662,72.3496011 77.2412433,72.6260191 78.203074,73.9275234 C79.1657712,75.2290277 78.8902197,77.0625717 77.589582,78.0252689 C74.3306221,80.4341783 70.6955952,81.2131746 67.3603821,81.2131746 Z" fill="#7658B1"/>
      <path d="M78.9690725,109.620975 C76.6268847,109.620975 73.9762178,109.478867 70.9954091,109.296899 C69.3802267,109.19725 68.150643,107.807361 68.2494257,106.191312 C68.3482083,104.57613 69.7250993,103.356944 71.3532794,103.446195 C77.4942654,103.823129 84.4532407,104.252053 86.1273461,102.210546 C87.3482646,100.722741 87.0900434,96.6475251 85.3604811,90.100144 C81.1188942,74.0384372 84.807645,68.6270562 88.597778,64.8169933 C88.8620649,64.5527065 89.1098879,64.3066165 89.3213174,64.0639925 C91.8827333,61.1395072 100.185672,56.6128371 101.82425,55.7359248 C103.250533,54.9707928 105.026887,55.5080316 105.791152,56.9343139 C106.555418,58.3605962 106.019046,60.1352173 104.592763,60.9012158 C100.906612,62.8760016 95.1009669,66.3619881 93.7318745,67.9234467 C93.4450583,68.2527221 93.1131834,68.5906626 92.75358,68.951999 C90.5768964,71.1390808 87.2876086,74.4448323 91.0266173,88.6045405 C93.4207959,97.6708783 93.3142147,102.690595 90.6583487,105.927892 C88.2745683,108.833314 84.4697045,109.620975 78.9690725,109.620975 Z" fill="#FF8A12"/>
      <path d="M73.1460973,152.054174 C65.9063713,152.054174 58.8052877,148.822943 53.844494,142.973106 C42.1699485,129.203329 33.6347839,129.331573 33.5351348,129.319442 C31.9182193,129.427756 30.5699233,128.133184 30.490204,126.537932 C30.4104846,124.942679 31.594143,123.580519 33.1867961,123.470471 C34.3305948,123.40375 44.7330975,123.164592 58.3131076,139.182106 C63.4636679,145.257237 71.2094381,147.635819 78.5288833,145.387214 C92.7873741,141.008718 102.882264,120.713223 106.22181,89.7067465 C109.174024,62.3023692 110.920916,34.2819003 97.3712341,19.1958885 C89.3135187,10.2214012 76.1806299,5.86110188 57.2230328,5.86110188 C16.5150633,5.86110188 8.1324052,32.3920329 6.41844016,43.7988255 C3.83709443,60.9748695 10.4503306,78.7696046 20.5686166,81.881257 C22.1153444,82.3569733 22.9844582,83.9955516 22.5078754,85.5440124 C22.0321591,87.0890072 20.3935808,87.9546549 18.8459865,87.4815381 C5.93579177,83.5120367 -2.40873974,63.1090939 0.623193356,42.9279788 C4.66288244,16.0478425 25.8214256,0 57.2230328,0 C77.9396537,0 92.4970918,4.99892028 101.730667,15.280111 C116.892065,32.1615401 115.141707,61.614357 112.049118,90.3341028 C107.116052,136.126777 90.0067301,147.991089 80.248914,150.988362 C77.9136583,151.704969 75.5229456,152.054174 73.1460973,152.054174 Z" fill="#DB0012"/>
    </g>
    <path d="M216.127002,90.2075917 C216.127002,99.4385672 214.26053,107.764035 210.527587,115.186596 C206.793778,122.60829 201.780993,128.398337 195.4927,132.562805 C190.378533,135.776706 185.185514,137.924794 179.915374,139.010537 C174.643502,140.097145 167.910687,140.639583 159.722128,140.639583 L136.439759,140.639583 L136.439759,39.5728359 L159.450043,39.5728359 C168.953104,39.5728359 176.407725,40.285977 181.81564,41.7113929 C187.222688,43.1368087 191.827345,45.0942642 195.627876,47.5820264 C202.144929,51.8825362 207.189775,57.5945977 210.765012,64.7208103 C214.338517,71.8487559 216.127002,80.3423278 216.127002,90.2075917 Z M202.144929,90.0048274 C202.144929,82.2235301 200.854689,75.5808324 198.275077,70.0828 C195.696331,64.5847675 191.871537,60.2989884 186.804162,57.2211301 C183.228925,55.048779 179.404998,53.4873205 175.333247,52.537621 C171.259764,51.5861884 166.191523,51.1122051 160.128523,51.1122051 L149.879394,51.1122051 L149.879394,129.10108 L160.128523,129.10108 C166.102272,129.10108 171.328219,128.626231 175.808964,127.675665 C180.287976,126.725099 184.383121,124.960009 188.093535,122.381263 C192.752782,119.21502 196.260431,114.993363 198.61475,109.723224 C200.967336,104.452218 202.144929,97.8779752 202.144929,90.0048274 Z M269.884675,78.5347793 L269.206194,78.5347793 C268.255628,78.2626938 267.247872,78.0919905 266.185526,78.0244024 C265.121446,77.9568143 263.843338,77.9230202 262.350334,77.9230202 C258.911139,77.9230202 255.49534,78.6699555 252.101204,80.1638259 C248.707935,81.6559633 245.494034,83.8725066 242.462967,86.8151887 L242.462967,140.64045 L229.701813,140.64045 L229.701813,64.8230589 L242.462101,64.8230589 L242.462101,76.0903428 C247.121347,71.9744004 251.184432,69.0655123 254.647023,67.3688776 C258.108747,65.6722428 261.468223,64.8230589 264.726316,64.8230589 L265.3085,64.8255137 C266.33312,64.8345031 267.122894,64.8681177 267.679396,64.9253076 C268.333614,64.9928957 269.070151,65.0951444 269.884675,65.2311871 L269.884675,78.5347793 Z M341.494273,102.765982 C341.494273,115.526269 338.416414,125.378536 332.263297,132.32538 C326.11018,139.272224 317.918155,142.744346 307.693288,142.744346 C297.14781,142.744346 288.857003,139.156977 282.815666,131.985706 C276.774329,124.815301 273.754527,115.073949 273.754527,102.765115 C273.754527,90.0966779 276.865313,80.2539434 283.086885,73.2395111 C289.308456,66.2242124 297.511746,62.718296 307.693288,62.718296 C317.919022,62.718296 326.11018,66.2129477 332.263297,73.2048506 C338.416414,80.1967534 341.494273,90.0490196 341.494273,102.765982 Z M328.326723,102.765982 C328.326723,92.9475095 326.539105,85.6505937 322.964734,80.875234 C319.389496,76.1007409 314.299592,73.7143609 307.693288,73.7143609 C301.041058,73.7143609 295.916494,76.1007409 292.318727,80.875234 C288.721826,85.6505937 286.922076,92.9475095 286.922076,102.765982 C286.922076,112.268176 288.72096,119.473241 292.318727,124.383777 C295.916494,129.29518 301.041058,131.748281 307.693288,131.748281 C314.2528,131.748281 319.334039,129.338505 322.93094,124.518954 C326.52784,119.701135 328.326723,112.448411 328.326723,102.765982 Z M416.973723,102.765982 C416.973723,115.526269 413.894132,125.378536 407.742747,132.32538 C401.587031,139.27309 393.395872,142.744346 383.171871,142.744346 C372.62726,142.744346 364.335586,139.156977 358.295116,131.985706 C352.253779,124.815301 349.233977,115.073949 349.233977,102.765115 C349.233977,90.0966779 352.344763,80.2539434 358.567201,73.2395111 C364.788773,66.2242124 372.991196,62.718296 383.172738,62.718296 C393.397605,62.718296 401.588764,66.2129477 407.743614,73.2048506 C413.894132,80.1967534 416.973723,90.0490196 416.973723,102.765982 Z M403.804441,102.765982 C403.804441,92.9475095 402.015955,85.6505937 398.442451,80.875234 C394.867213,76.1007409 389.776443,73.7143609 383.171005,73.7143609 C376.517909,73.7143609 371.393344,76.1007409 367.79731,80.875234 C364.199544,85.6505937 362.399794,92.9475095 362.399794,102.765982 C362.399794,112.268176 364.198677,119.473241 367.79731,124.383777 C371.393344,129.29518 376.517909,131.748281 383.171005,131.748281 C389.730517,131.748281 394.811756,129.338505 398.409523,124.518954 C402.005557,119.701135 403.804441,112.448411 403.804441,102.765982 Z M443.105191,140.64045 L430.344037,140.64045 L430.344037,35.0253695 L443.105191,35.0253695 L443.105191,140.64045 Z M482.33662,142.473127 C477.267512,142.473127 472.529413,141.794647 468.117123,140.436819 C463.704832,139.078991 460.049876,137.63018 457.155718,136.09125 L457.155718,121.770371 L457.834199,121.770371 C458.920808,122.629086 460.19805,123.579652 461.669391,124.621202 C463.138132,125.663619 465.097321,126.749361 467.540891,127.879295 C469.712375,128.873187 472.098755,129.756165 474.700897,130.526496 C477.303039,131.297694 480.005697,131.680693 482.812337,131.680693 C484.849511,131.680693 487.020129,131.443268 489.328523,130.967552 C491.63605,130.493569 493.355214,129.892208 494.487749,129.170402 C496.070003,128.127985 497.212936,127.021446 497.915679,125.842987 C498.616689,124.667127 498.96676,122.900305 498.96676,120.550319 C498.96676,117.519252 498.140972,115.231655 496.490263,113.694458 C494.893964,112.210269 492.109414,110.956298 488.130373,109.934106 L487.699476,109.825473 C486.172245,109.443665 484.206341,109.001692 481.805334,108.500268 L481.319333,108.39919 C478.694661,107.856752 476.272754,107.269256 474.057077,106.634967 C468.262697,104.960862 464.054904,102.369118 461.431966,98.8632018 C458.807294,95.3572855 457.495392,91.1156986 457.495392,86.1358416 C457.495392,79.3042438 460.075005,73.7377568 465.233363,69.4381134 C470.391722,65.1376036 477.247582,62.9903815 485.800077,62.9903815 C490.007004,62.9903815 494.238192,63.5094235 498.491911,64.55184 C502.743896,65.5925235 506.319133,66.902693 509.21589,68.4884139 L509.21589,82.1308131 L508.538276,82.1308131 C505.279316,79.5512004 501.647755,77.5157586 497.643593,76.0218881 C493.639431,74.5280177 489.601475,73.7828155 485.527992,73.7828155 C481.320199,73.7828155 477.766624,74.6649269 474.871601,76.4300163 C471.97571,78.1942392 470.526899,80.8657024 470.526899,84.4392068 C470.526899,87.6054496 471.385614,89.9710333 473.107378,91.5324919 C474.825675,93.0930839 477.58639,94.3729254 481.387787,95.3676836 C483.077682,95.8105686 484.936002,96.2438685 486.96579,96.6681918 L487.735004,96.8268935 C490.064194,97.3026098 492.519028,97.8563123 495.099508,98.4906007 C500.70932,99.8917541 504.929244,102.22441 507.757547,105.481637 C510.584116,108.73973 512,113.175416 512,118.785229 C512,122.043323 511.35618,125.131579 510.06594,128.049999 C508.776567,130.967552 506.885833,133.469178 504.398071,135.549679 C501.683282,137.813014 498.617555,139.530445 495.20089,140.708038 C491.782491,141.882165 487.495846,142.473127 482.33662,142.473127 Z" fill="#747474"/>
  </g>
</svg>

<svg width="512" height="153" xmlns="http://www.w3.org/2000/svg" preserveAspectRatio="xMidYMid"><path d="M25.128 117.646a2.932 2.932 0 0 1-2.833-3.69c4.843-18.076 3.917-66.438 3.906-66.925a2.928 2.928 0 0 1 2.87-2.987c.02-.002.04-.002.06-.002a2.93 2.93 0 0 1 2.928 2.871c.041 2.02.952 49.689-4.103 68.561a2.931 2.931 0 0 1-2.828 2.172Z" fill="#0095DD"/><path d="M67.36 81.213c-5.893 0-10.855-2.428-11.176-2.589a2.929 2.929 0 0 1-1.31-3.93 2.931 2.931 0 0 1 3.926-1.313c.175.086 9.224 4.427 15.305-.066a2.93 2.93 0 1 1 3.484 4.71c-3.258 2.41-6.893 3.188-10.229 3.188Z" fill="#7658B1"/><path d="M78.97 109.621c-2.343 0-4.994-.142-7.975-.324a2.932 2.932 0 0 1-2.746-3.106 2.929 2.929 0 0 1 3.104-2.745c6.141.377 13.1.806 14.774-1.235 1.221-1.488.963-5.563-.767-12.11-4.241-16.063-.552-21.474 3.238-25.284.264-.264.512-.51.723-.753 2.562-2.924 10.865-7.451 12.503-8.328a2.93 2.93 0 1 1 2.769 5.165c-3.686 1.975-9.492 5.461-10.861 7.022-.287.33-.619.668-.978 1.029-2.177 2.187-5.466 5.493-1.727 19.653 2.394 9.066 2.287 14.086-.369 17.323-2.383 2.905-6.188 3.693-11.689 3.693Z" fill="#FF8A12"/><path d="M73.146 152.054c-7.24 0-14.34-3.231-19.302-9.08-11.674-13.77-20.21-13.642-20.309-13.655-1.617.109-2.965-1.186-3.045-2.781-.08-1.595 1.104-2.957 2.697-3.068 1.144-.066 11.546-.305 25.126 15.712 5.15 6.075 12.896 8.454 20.216 6.205 14.258-4.378 24.353-24.674 27.693-55.68 2.952-27.405 4.699-55.425-8.85-70.511C89.313 10.22 76.18 5.86 57.222 5.86c-40.708 0-49.09 26.531-50.805 37.938-2.58 17.176 4.032 34.97 14.15 38.082a2.93 2.93 0 1 1-1.722 5.6C5.936 83.513-2.409 63.11.623 42.929 4.663 16.048 25.821 0 57.223 0c20.717 0 35.274 4.999 44.508 15.28 15.161 16.882 13.41 46.334 10.318 75.054-4.933 45.793-22.042 57.657-31.8 60.654a24.188 24.188 0 0 1-7.103 1.066Z" fill="#DB0012"/><path d="M216.127 90.208c0 9.23-1.866 17.556-5.6 24.979-3.733 7.421-8.746 13.211-15.034 17.376-5.114 3.214-10.307 5.362-15.578 6.448-5.271 1.086-12.004 1.629-20.193 1.629H136.44V39.573h23.01c9.503 0 16.958.713 22.366 2.138 5.407 1.426 10.011 3.383 13.812 5.871 6.517 4.3 11.562 10.013 15.137 17.139 3.574 7.128 5.362 15.621 5.362 25.487Zm-13.982-.203c0-7.781-1.29-14.424-3.87-19.922-2.579-5.498-6.403-9.784-11.47-12.862a39.026 39.026 0 0 0-11.472-4.683c-4.073-.952-9.141-1.426-15.204-1.426h-10.25v77.99h10.25c5.973 0 11.2-.476 15.68-1.426 4.479-.95 8.574-2.716 12.285-5.295 4.659-3.166 8.166-7.388 10.52-12.658 2.353-5.27 3.53-11.845 3.53-19.718Zm67.74-11.47h-.679a14.24 14.24 0 0 0-3.02-.51 61.767 61.767 0 0 0-3.836-.102c-3.439 0-6.855.747-10.249 2.24-3.393 1.493-6.607 3.71-9.638 6.652v53.825h-12.761V64.823h12.76V76.09c4.66-4.116 8.722-7.024 12.185-8.721 3.462-1.697 6.821-2.546 10.08-2.546l.582.003c1.024.009 1.814.042 2.37.1.655.067 1.391.17 2.206.305v13.304Zm71.61 24.231c0 12.76-3.079 22.613-9.232 29.56-6.153 6.946-14.345 10.418-24.57 10.418-10.545 0-18.836-3.587-24.877-10.758-6.042-7.17-9.061-16.912-9.061-29.22 0-12.67 3.11-22.512 9.332-29.526 6.221-7.016 14.425-10.522 24.606-10.522 10.226 0 18.417 3.495 24.57 10.487 6.153 6.992 9.231 16.844 9.231 29.561Zm-13.168 0c0-9.818-1.788-17.115-5.362-21.89-3.576-4.775-8.665-7.162-15.272-7.162-6.652 0-11.777 2.387-15.374 7.161-3.597 4.776-5.397 12.073-5.397 21.891 0 9.502 1.799 16.707 5.397 21.618 3.597 4.911 8.722 7.364 15.374 7.364 6.56 0 11.641-2.41 15.238-7.229 3.597-4.818 5.396-12.07 5.396-21.753Zm88.647 0c0 12.76-3.08 22.613-9.231 29.56-6.156 6.947-14.347 10.418-24.571 10.418-10.545 0-18.836-3.587-24.877-10.758-6.041-7.17-9.061-16.912-9.061-29.22 0-12.67 3.11-22.512 9.333-29.526 6.222-7.016 14.424-10.522 24.606-10.522 10.225 0 18.416 3.495 24.57 10.487 6.151 6.992 9.23 16.844 9.23 29.561Zm-13.17 0c0-9.818-1.788-17.115-5.362-21.89-3.575-4.775-8.666-7.162-15.271-7.162-6.653 0-11.778 2.387-15.374 7.161-3.597 4.776-5.397 12.073-5.397 21.891 0 9.502 1.799 16.707 5.397 21.618 3.596 4.911 8.72 7.364 15.374 7.364 6.56 0 11.64-2.41 15.239-7.229 3.596-4.818 5.394-12.07 5.394-21.753Zm39.301 37.874h-12.761V35.025h12.761V140.64Zm39.232 1.833c-5.07 0-9.808-.678-14.22-2.036-4.412-1.358-8.067-2.807-10.961-4.346v-14.32h.678a91.57 91.57 0 0 0 3.835 2.85c1.47 1.043 3.428 2.128 5.872 3.258 2.171.994 4.558 1.877 7.16 2.647a28.388 28.388 0 0 0 8.111 1.155c2.038 0 4.208-.238 6.517-.713 2.307-.474 4.026-1.076 5.159-1.798 1.582-1.042 2.725-2.149 3.428-3.327.7-1.176 1.05-2.943 1.05-5.293 0-3.03-.825-5.318-2.476-6.856-1.596-1.484-4.38-2.738-8.36-3.76l-.43-.109a160.363 160.363 0 0 0-5.895-1.325l-.486-.1a100.093 100.093 0 0 1-7.262-1.765c-5.794-1.674-10.002-4.266-12.625-7.772-2.625-3.506-3.937-7.747-3.937-12.727 0-6.832 2.58-12.398 7.738-16.698 5.159-4.3 12.015-6.448 20.567-6.448 4.207 0 8.438.52 12.692 1.562 4.252 1.04 7.827 2.35 10.724 3.936v13.643h-.678c-3.259-2.58-6.89-4.615-10.894-6.11-4.005-1.493-8.043-2.238-12.116-2.238-4.208 0-7.761.882-10.656 2.647-2.896 1.764-4.345 4.436-4.345 8.01 0 3.165.859 5.531 2.58 7.092 1.719 1.561 4.48 2.84 8.28 3.836 1.69.443 3.549.876 5.579 1.3l.769.159c2.33.476 4.784 1.03 7.365 1.664 5.61 1.4 9.83 3.733 12.658 6.99 2.826 3.259 4.242 7.694 4.242 13.304 0 3.258-.644 6.347-1.934 9.265s-3.18 5.42-5.668 7.5c-2.715 2.263-5.78 3.98-9.197 5.158-3.419 1.174-7.705 1.765-12.864 1.765Z" fill="#747474"/></svg>
